img/like.svg

<svg width="22" height="22" viewBox="0 0 22 22" fill="none" xmlns="http://www.w3.org/2000/svg">
<path fill-rule="evenodd" clip-rule="evenodd" d="M6.53357 8.74362C7.6375 7.17485 8.32657 5.37472 8.60301 3.33679C8.62935 3.14265 8.76677 2.98123 8.95539 2.92286C10.8565 2.33452 11.9373 3.26943 11.9195 5.40122C11.916 5.81502 11.8969 6.18283 11.8562 6.74537C11.7654 8.00189 11.7726 8.34479 11.9133 8.57552C12.0486 8.79732 12.4876 8.87304 13.5259 8.67591C13.8535 8.61371 14.1822 8.5432 14.5462 8.45851C14.7069 8.42113 15.8644 8.1387 16.1603 8.07482C16.7246 7.95295 17.1296 7.90138 17.4857 7.92322C18.4504 7.98238 18.9623 8.6035 19.0507 9.79348C19.2065 11.8891 18.7252 16.0985 18.245 17.6489C17.7543 19.2333 16.8986 19.8314 14.8444 19.8675C13.5237 19.8907 11.4925 19.8907 8.74123 19.8674C8.0389 19.8511 7.40242 19.7151 6.83626 19.4608C6.99519 19.1318 7.08418 18.7632 7.08418 18.374V10.31C7.08418 9.71802 6.87827 9.17371 6.53357 8.74362Z" fill="#1565D8"/>
<path opacity="0.3" fill-rule="evenodd" clip-rule="evenodd" d="M3.52526 8.7981C2.68288 8.7981 2 9.47504 2 10.3101V18.3741C2 19.2092 2.68288 19.8861 3.52526 19.8861H4.54211C5.38448 19.8861 6.06737 19.2092 6.06737 18.3741V10.3101C6.06737 9.47504 5.38448 8.7981 4.54211 8.7981H3.52526Z" fill="#1565D8"/>
</svg>

<svg width="22" height="22" fill="none" xmlns="http://www.w3.org/2000/svg"><path fill-rule="evenodd" clip-rule="evenodd" d="M6.534 8.744c1.104-1.57 1.793-3.37 2.069-5.407a.505.505 0 01.352-.414c1.902-.588 2.982.346 2.964 2.478-.003.414-.022.782-.063 1.344-.09 1.257-.083 1.6.057 1.83.136.222.575.298 1.613.1.328-.061.656-.132 1.02-.216.16-.038 1.318-.32 1.614-.384.565-.122.97-.174 1.326-.152.964.06 1.476.68 1.565 1.87.155 2.096-.326 6.306-.806 7.856-.49 1.584-1.346 2.182-3.4 2.218-1.321.024-3.353.024-6.104 0-.702-.016-1.339-.152-1.905-.406.16-.33.248-.698.248-1.087V10.31c0-.592-.206-1.136-.55-1.566z" fill="#1565D8"/><path opacity=".3" fill-rule="evenodd" clip-rule="evenodd" d="M3.525 8.798C2.683 8.798 2 9.475 2 10.31v8.064c0 .835.683 1.512 1.525 1.512h1.017c.842 0 1.525-.677 1.525-1.512V10.31c0-.835-.683-1.512-1.525-1.512H3.525z" fill="#1565D8"/></svg>
